X:2075
T:Branle simple
R:Branle simple
C:Jacques Moderne
O:France
M:C
L:1/4
Q:1/4=180
K:F
A A/2A/2AA|GFBc|c/2B/2A/2G/2 ^F2|A A/2A/2AA|GFE/2D/2G|G^FG2|
B B/2B/2BB|A/2G/2F/2E/2DB|A/2G/2B/2A/2B2|G
G/2G/2GG|EEF/2E/2G|G^FG2:|
